src/svg/th-large.svg

<svg version="1.2" baseProfile="tiny" xmlns="http://www.w3.org/2000/svg" width="24" height="24" viewBox="0 0 24 24"><path d="M8 3h-2c-.825 0-1.575.337-2.119.881-.544.544-.881 1.294-.881 2.119v2c0 .825.337 1.575.881 2.119.544.544 1.294.881 2.119.881h2c.825 0 1.575-.337 2.119-.881.544-.544.881-1.294.881-2.119v-2c0-.825-.337-1.575-.881-2.119-.544-.544-1.294-.881-2.119-.881zM18 3h-2c-.825 0-1.575.337-2.119.881-.544.544-.881 1.294-.881 2.119v2c0 .825.337 1.575.881 2.119.544.544 1.294.881 2.119.881h2c.825 0 1.575-.337 2.119-.881.544-.544.881-1.294.881-2.119v-2c0-.825-.337-1.575-.881-2.119-.544-.544-1.294-.881-2.119-.881zM8 13h-2c-.825 0-1.575.337-2.119.881-.544.544-.881 1.294-.881 2.119v2c0 .825.337 1.575.881 2.119.544.544 1.294.881 2.119.881h2c.825 0 1.575-.337 2.119-.881.544-.544.881-1.294.881-2.119v-2c0-.825-.337-1.575-.881-2.119-.544-.544-1.294-.881-2.119-.881zM18 13h-2c-.825 0-1.575.337-2.119.881-.544.544-.881 1.294-.881 2.119v2c0 .825.337 1.575.881 2.119.544.544 1.294.881 2.119.881h2c.825 0 1.575-.337 2.119-.881.544-.544.881-1.294.881-2.119v-2c0-.825-.337-1.575-.881-2.119-.544-.544-1.294-.881-2.119-.881z"/></svg>

<?xml version="1.0" encoding="iso-8859-1"?>
<!-- Generator: Adobe Illustrator 16.2.1, SVG Export Plug-In . SVG Version: 6.00 Build 0)  -->
<svg version="1.2" baseProfile="tiny" id="Layer_1" xmlns="http://www.w3.org/2000/svg" xmlns:xlink="http://www.w3.org/1999/xlink"
	 x="0px" y="0px" width="24px" height="24px" viewBox="0 0 24 24" xml:space="preserve">
<path d="M8,3H6C5.175,3,4.425,3.337,3.881,3.881C3.337,4.425,3,5.175,3,6v2c0,0.825,0.337,1.575,0.881,2.119
	C4.425,10.663,5.175,11,6,11h2c0.825,0,1.575-0.337,2.119-0.881C10.663,9.575,11,8.825,11,8V6c0-0.825-0.337-1.575-0.881-2.119
	C9.575,3.337,8.825,3,8,3z"/>
<path d="M18,3h-2c-0.825,0-1.575,0.337-2.119,0.881C13.337,4.425,13,5.175,13,6v2c0,0.825,0.337,1.575,0.881,2.119
	C14.425,10.663,15.175,11,16,11h2c0.825,0,1.575-0.337,2.119-0.881C20.663,9.575,21,8.825,21,8V6c0-0.825-0.337-1.575-0.881-2.119
	C19.575,3.337,18.825,3,18,3z"/>
<path d="M8,13H6c-0.825,0-1.575,0.337-2.119,0.881C3.337,14.425,3,15.175,3,16v2c0,0.825,0.337,1.575,0.881,2.119
	C4.425,20.663,5.175,21,6,21h2c0.825,0,1.575-0.337,2.119-0.881C10.663,19.575,11,18.825,11,18v-2c0-0.825-0.337-1.575-0.881-2.119
	C9.575,13.337,8.825,13,8,13z"/>
<path d="M18,13h-2c-0.825,0-1.575,0.337-2.119,0.881C13.337,14.425,13,15.175,13,16v2c0,0.825,0.337,1.575,0.881,2.119
	C14.425,20.663,15.175,21,16,21h2c0.825,0,1.575-0.337,2.119-0.881C20.663,19.575,21,18.825,21,18v-2
	c0-0.825-0.337-1.575-0.881-2.119C19.575,13.337,18.825,13,18,13z"/>
</svg>
